!!!COM: Mozart
!!!OTL: 8 Variationen uber das Lied "Ein Weib ist das herrlichste Ding"
!!!Variation: Variation 5 a
**function	**harm	**kern	**kern
*	*	*clefF4	*clefG2
*	*	*k[b-]	*k[b-]
*M3/4	*M3/4	*M3/4	*M3/4
*F:	*F:	*F:	*F:
4D	4V	4r	4cc
=234	=234	=234	=234
2.D	2.V	8r	(8bL
.	.	(8c	8ccJ
.	.	8BL	8ddL)
.	.	8cJ	8cc'J
.	.	8dL)	8b-'L
.	.	8c'J	8a'J
=235	=235	=235	=235
2.D	2.V7d	8B-'L	8g'L
.	.	8A'J	8f'J
.	.	8G'L	8e'L
.	.	8F'J	8d'J
.	.	(8EL	(8cL
.	.	8BB-J)	8eJ)
=236	=236	=236	=236
2D	2Ib	4AA	4f
.	.	.	(q32g
.	.	4r	(8fL)
.	.	.	8eJ)
4D	4I	8AAL	(8cL 8f
.	.	8FFJ	8fJ) 8a
=237	=237	=237	=237
4D	4Cc	2C	(4f 4a
2D	2V	.	4e) 4g
.	.	4c	4r
=238	=238	=238	=238
2.D	2.V	(8BL	8r
.	.	8cJ	(8cc
.	.	8dL)	8bL
.	.	8c'J	8ccJ
.	.	8B-'L	8ddL)
.	.	8A'J	8cc'J
=239	=239	=239	=239
2.D	2.V7	8G'L	8b-'L
.	.	8F'J	8a'J
.	.	8E'L	8g'L
.	.	8D'J	8f'J
.	.	(8CL	(8eL
.	.	8BB-J)	8gJ)
=240	=240	=240	=240
4T	4Ib	4AA	4cc
*	*	*	*^
4D	4Cc	4C	(8aL	4c
.	.	.	8fJ)	.
4D	4V7	4CC	(8gL	4B-
.	.	.	8eJ)	.
=241	=241	=241	=241	=241
2T	2I	4FF	4f	4A
*	*	*	*v	*v
.	.	4F	4r
*-	*-	*-	*-
